X: 4234
M: 6/8
L: 1/8
K: Am
E |\
EAA ABc | Bee e2d | cBA ABc | B^GE E2E |\
EAA ABc | Bee e2d | cBA B^GE | A3- A2 :|
|: B |\
c2c cdc | Bdg g2^g | aed cBA | ^GBG E^FG |\


